lib/healthicons/icons/solid/body/stomach.svg

<svg fill="none" height="48" viewBox="0 0 48 48" width="48" xmlns="http://www.w3.org/2000/svg"><path clip-rule="evenodd" d="m16.7155 15.074c1.1799 1.2863 3.1733 1.838 6.8265 1.9162.2083-2.7591 1.271-4.9325 2.8437-6.458 1.7482-1.6957 4.0666-2.5322 6.3666-2.5322 2.2999 0 4.6183.8365 6.3665 2.5322 1.76 1.7071 2.8812 4.2254 2.8812 7.4678v11c0 3.0823-.5133 6.3013-2.0665 8.7808-1.5984 2.5518-4.2384 4.2192-8.1903 4.2192-4.041 0-6.8547-2.3981-9.4274-4.6179l-.112-.0966c-2.5907-2.2358-5.0046-4.319-8.4369-4.7853-1.6831.0128-2.8161.5271-3.6071 1.2312-.82037.7301-1.34943 1.7337-1.6797 2.8116-.32963 1.0757-.44367 2.1692-.47219 3.0067-.01415.4155-.00701.7604.00341.9984.0052.1188.0112.2105.01569.2705.00225.03.00412.052.00532.0655l.00126.0138.00011.0012c-.00003-.0003-.00007-.0007-.99489.1009-.99483.1016-.99487.1012-.99492.1007l-.00011-.0011-.00029-.0029-.00081-.0084-.00248-.0269c-.002-.0225-.00463-.0538-.0076-.0934-.00593-.0791-.0132-.1915-.01937-.3325-.01232-.2815-.02033-.6788-.00416-1.1539.03214-.9438.16068-2.2253.55879-3.5246.39748-1.2971 1.08132-2.6685 2.26224-3.7196 1.2002-1.0683 2.8382-1.7374 5.0009-1.7374.503 0 .9769.0114 1.4322.0224.846.0204 1.6278.0392 2.4123-.0196 1.1546-.0865 2.1069-.3382 2.8938-.928 1.5062-1.1289 2.8118-3.8241 2.927-10.5847-3.719-.077-6.4804-.63-8.2546-2.5641-.9636-1.0505-1.5585-2.4251-1.9173-4.1258-.3575-1.6945-.4934-3.77521-.4934-6.3002h2c0 2.47501.1353 4.3943.4503 5.8873.3137 1.4868.7925 2.4872 1.4342 3.1867zm23.2845 11.1666v-8.2406c0-2.7576-.9407-4.7393-2.2737-6.0322-1.3446-1.3043-3.1501-1.9678-4.974-1.9678s-3.6294.6635-4.9741 1.9678c-1.3329 1.2929-2.2736 3.2746-2.2736 6.0322 0 2.7689-.1783 5.0401-.5249 6.8953 3.3382-1.8045 5.8691-.5194 8.2524.6908 2.2078 1.121 4.2889 2.1777 6.7679.6545z" fill="#333" fill-rule="evenodd"/></svg>

<svg width="48" height="48" viewBox="0 0 48 48" fill="none" xmlns="http://www.w3.org/2000/svg">
<path fill-rule="evenodd" clip-rule="evenodd" d="M16.7155 15.074C17.8954 16.3603 19.8888 16.912 23.542 16.9902C23.7503 14.2311 24.813 12.0577 26.3857 10.5322C28.1339 8.8365 30.4523 8 32.7523 8C35.0522 8 37.3706 8.8365 39.1188 10.5322C40.8788 12.2393 42 14.7576 42 18V29C42 32.0823 41.4867 35.3013 39.9335 37.7808C38.3351 40.3326 35.6951 42 31.7432 42C27.7022 42 24.8885 39.6019 22.3158 37.3821L22.2038 37.2855C19.6131 35.0497 17.1992 32.9665 13.7669 32.5002C12.0838 32.513 10.9508 33.0273 10.1598 33.7314C9.33943 34.4615 8.81037 35.4651 8.4801 36.543C8.15047 37.6187 8.03643 38.7122 8.00791 39.5497C7.99376 39.9652 8.0009 40.3101 8.01132 40.5481C8.01652 40.6669 8.02252 40.7586 8.02701 40.8186C8.02926 40.8486 8.03113 40.8706 8.03233 40.8841L8.03359 40.8979L8.0337 40.8991C8.0337 40.8991 8.03363 40.8984 7.03881 41C6.04398 41.1016 6.04389 41.1007 6.04389 41.1007L6.04378 41.0996L6.04349 41.0967L6.04268 41.0883L6.0402 41.0614C6.0382 41.0389 6.03557 41.0076 6.0326 40.968C6.02667 40.8889 6.0194 40.7765 6.01323 40.6355C6.00091 40.354 5.9929 39.9567 6.00907 39.4816C6.04121 38.5378 6.16975 37.2563 6.56786 35.957C6.96534 34.6599 7.64918 33.2885 8.8301 32.2374C10.0303 31.1691 11.6683 30.5 13.831 30.5C14.334 30.5 14.8079 30.5114 15.2632 30.5224C16.1092 30.5428 16.891 30.5616 17.6755 30.5028C18.8301 30.4163 19.7824 30.1646 20.5693 29.5748C22.0755 28.4459 23.3811 25.7507 23.4963 18.9901C19.7773 18.9131 17.0159 18.3601 15.2417 16.426C14.2781 15.3755 13.6832 14.0009 13.3244 12.3002C12.9669 10.6057 12.831 8.52499 12.831 6H14.831C14.831 8.47501 14.9663 10.3943 15.2813 11.8873C15.595 13.3741 16.0738 14.3745 16.7155 15.074ZM40 26.2406V18C40 15.2424 39.0593 13.2607 37.7263 11.9678C36.3817 10.6635 34.5762 10 32.7523 10C30.9284 10 29.1229 10.6635 27.7782 11.9678C26.4453 13.2607 25.5046 15.2424 25.5046 18C25.5046 20.7689 25.3263 23.0401 24.9797 24.8953C28.3179 23.0908 30.8488 24.3759 33.2321 25.5861C35.4399 26.7071 37.521 27.7638 40 26.2406Z" fill="#333333"/>
</svg>
